X:1
T:Liza Jane
M:2/4
L:1/8
K:F
 z2 C2-| FF AA| G F- F2| AA AF| D4| FF AA|G-F DD| GF CD| F4| dd cA|\
 G F3| dd cA| G4| dd cA| G F3| GF CD| F3 z|

